build/logo/PythonOutline.svg

<svg xmlns="http://www.w3.org/2000/svg" fill="none" viewBox="0 0 24 24" focusable="false"><path d="M0 0H24V24H0z"/><path fill="#74767B" fill-rule="evenodd" d="M7.48799 7.48712L5.81408 7.48712C5.26499 7.48712 4.77276 7.60222 4.35342 7.85629C3.93223 8.11148 3.63144 8.47849 3.42089 8.90473C3.01595 9.72446 2.91699 10.8241 2.91699 12C2.91699 13.1758 3.01595 14.2755 3.42089 15.0952C3.63144 15.5214 3.93223 15.8884 4.35342 16.1436C4.77276 16.3977 5.26499 16.5128 5.81409 16.5128L7.48799 16.5128L7.48799 18.1855C7.48799 18.7311 7.59865 19.2218 7.84741 19.6411C8.09793 20.0633 8.46054 20.3659 8.88573 20.5778C9.7013 20.9844 10.8033 21.083 12.0008 21.083C13.1983 21.083 14.3004 20.9844 15.1159 20.5778C15.5411 20.3659 15.9037 20.0633 16.1542 19.6411C16.403 19.2218 16.5137 18.7311 16.5137 18.1855L16.5137 16.5128L18.1852 16.5128C18.7308 16.5128 19.2215 16.4021 19.6408 16.1534C20.063 15.9029 20.3656 15.5403 20.5777 15.1151C20.9843 14.2995 21.083 13.1975 21.083 12C21.083 10.8024 20.9843 9.70022 20.5777 8.88449C20.3657 8.45924 20.0631 8.09654 19.6409 7.84594C19.2216 7.59708 18.7308 7.48636 18.1852 7.48636C17.6426 7.48636 17.3298 7.48655 17.0287 7.48674L17.0081 7.48675C16.8517 7.48685 16.6971 7.48695 16.5137 7.48702L16.5137 5.8144C16.5137 5.26531 16.3986 4.77308 16.1445 4.35371C15.8893 3.9325 15.5224 3.63168 15.0961 3.42107C14.2764 3.01604 13.1767 2.91699 12.0008 2.91699C10.8249 2.91699 9.72528 3.01604 8.90555 3.42106C8.47931 3.63167 8.11232 3.93249 7.85715 4.3537C7.60309 4.77306 7.48799 5.26529 7.48799 5.81439L7.48799 7.48712ZM15.2137 5.81441L15.2137 9.50013C15.2137 10.5218 14.3855 11.35 13.3637 11.35L10.638 11.35C8.89837 11.35 7.48799 12.76 7.48799 14.4997L7.48799 15.2128L5.81409 15.2128C5.44734 15.2128 5.20076 15.137 5.02706 15.0318C4.8552 14.9277 4.70869 14.7669 4.58643 14.5194C4.32574 13.9917 4.21699 13.1599 4.21699 12C4.21699 10.84 4.32574 10.0082 4.58643 9.48049C4.70869 9.233 4.8552 9.07226 5.02706 8.96814C5.20076 8.8629 5.44734 8.78712 5.81409 8.78712L11.5171 8.78712C11.8761 8.78712 12.1671 8.49611 12.1671 8.13712C12.1671 7.77814 11.8761 7.48712 11.5171 7.48712L8.78799 7.48712L8.78799 5.81439C8.78799 5.44765 8.86377 5.20104 8.96903 5.02729C9.07316 4.85539 9.23392 4.70884 9.48141 4.58656C10.0091 4.32581 10.8409 4.21699 12.0008 4.21699C13.1607 4.21699 13.9925 4.32581 14.5202 4.58656C14.7677 4.70885 14.9285 4.8554 15.0326 5.0273C15.1379 5.20105 15.2137 5.44767 15.2137 5.81441ZM16.5137 8.78702L16.5137 9.50013C16.5137 11.2399 15.1033 12.65 13.3637 12.65L10.638 12.65C9.61619 12.65 8.78799 13.4781 8.78799 14.4997L8.78799 18.1855C8.78799 18.5557 8.86229 18.8039 8.96544 18.9777C9.06683 19.1486 9.22309 19.2934 9.46571 19.4144C9.98577 19.6736 10.8151 19.783 12.0008 19.783C13.1865 19.783 14.0159 19.6736 14.5359 19.4144C14.7786 19.2934 14.9348 19.1486 15.0362 18.9777C15.1394 18.8039 15.2137 18.5557 15.2137 18.1855L15.2137 16.5128L12.4828 16.5128C12.1239 16.5128 11.8328 16.2218 11.8328 15.8628C11.8328 15.5038 12.1239 15.2128 12.4828 15.2128L18.1852 15.2128C18.5554 15.2128 18.8036 15.1385 18.9775 15.0353C19.1484 14.9339 19.2933 14.7776 19.4143 14.535C19.6736 14.015 19.783 13.1856 19.783 12C19.783 10.8143 19.6736 9.98472 19.4142 9.46445C19.2932 9.22169 19.1483 9.06533 18.9774 8.96388C18.8035 8.86068 18.5554 8.78636 18.1852 8.78636C17.643 8.78636 17.3304 8.78655 17.0295 8.78674L17.0093 8.78675C16.8526 8.78685 16.6976 8.78695 16.5137 8.78702Z"/></svg>

<svg xmlns="http://www.w3.org/2000/svg" fill="none" viewBox="0 0 24 24" focusable="false"><path fill="#74767B" fill-rule="evenodd" d="M7.48 7.48H5.81c-.55 0-1.04.12-1.46.37-.42.26-.72.62-.93 1.05-.41.82-.51 1.92-.51 3.1 0 1.17.1 2.27.51 3.09.21.43.51.79.93 1.05.42.25.91.37 1.46.37h1.67v1.67c0 .55.11 1.04.36 1.46s.62.72 1.04.93c.82.41 1.92.51 3.12.51 1.19 0 2.3-.1 3.11-.51.43-.21.79-.51 1.04-.93s.36-.91.36-1.46v-1.67h1.67c.55 0 1.04-.11 1.46-.36s.72-.61.93-1.04c.41-.82.51-1.92.51-3.11 0-1.2-.1-2.3-.51-3.12-.21-.43-.51-.79-.93-1.04s-.91-.36-1.46-.36h-1.67V5.81c0-.55-.12-1.04-.37-1.46a2.5 2.5 0 0 0-1.05-.93c-.82-.41-1.92-.51-3.09-.51-1.18 0-2.28.1-3.1.51-.43.21-.79.51-1.05.93-.25.42-.37.91-.37 1.46zm7.73-1.67V9.5c0 1.02-.83 1.84-1.85 1.84h-2.73a3.15 3.15 0 0 0-3.15 3.15v.72H5.81c-.37 0-.61-.08-.79-.18-.17-.11-.32-.27-.44-.52-.26-.52-.37-1.36-.37-2.51 0-1.16.11-2 .37-2.52.12-.25.27-.41.44-.52.18-.1.42-.18.79-.18h5.7c.36 0 .65-.29.65-.65s-.29-.65-.65-.65H8.78V5.81c0-.37.08-.61.18-.79.11-.17.27-.32.52-.44.52-.26 1.36-.37 2.52-.37s1.99.11 2.52.37c.24.12.4.27.51.44.1.18.18.42.18.79m1.3 2.97v.72c0 1.73-1.41 3.15-3.15 3.15h-2.73c-1.02 0-1.85.82-1.85 1.84v3.69c0 .37.08.62.18.79s.26.32.5.44c.52.26 1.35.37 2.54.37 1.18 0 2.01-.11 2.53-.37.24-.12.4-.27.5-.44s.18-.42.18-.79v-1.67h-2.73c-.36 0-.65-.29-.65-.65s.29-.65.65-.65h5.7c.37 0 .62-.08.79-.18s.32-.26.44-.5c.26-.52.37-1.35.37-2.53 0-1.19-.11-2.02-.37-2.54-.12-.24-.27-.4-.44-.5s-.42-.18-.79-.18h-1.67"/></svg>
